images/yellow-squar.svg

<svg fill="none" height="315" viewBox="0 0 315 315" width="315" xmlns="http://www.w3.org/2000/svg" xmlns:xlink="http://www.w3.org/1999/xlink"><filter id="a" color-interpolation-filters="sRGB" filterUnits="userSpaceOnUse" height="313.817" width="313.817" x=".432617" y=".435394"><feFlood flood-opacity="0" result="BackgroundImageFix"/><feColorMatrix in="SourceAlpha" result="hardAlpha" type="matrix" values="0 0 0 0 0 0 0 0 0 0 0 0 0 0 0 0 0 0 127 0"/><feOffset dx="-8" dy="36"/><feGaussianBlur stdDeviation="31"/><feColorMatrix type="matrix" values="0 0 0 0 0.976471 0 0 0 0 0.8 0 0 0 0 0.0392157 0 0 0 0.35 0"/><feBlend in2="BackgroundImageFix" mode="normal" result="effect1_dropShadow"/><feBlend in="SourceGraphic" in2="effect1_dropShadow" mode="normal" result="shape"/></filter><g filter="url(#a)"><path d="m93.1665 133.843c-4.1861-3.602-4.6593-9.916-1.0568-14.102l60.7323-70.5718c3.602-4.1861 9.916-4.6593 14.102-1.0568l70.572 60.7316c4.186 3.603 4.659 9.917 1.057 14.103l-60.732 70.571c-3.603 4.187-9.917 4.66-14.103 1.057zm75.4705-53.9698c-4.19-3.597-10.504-3.1157-14.101 1.0751l-31.057 36.1837c-3.597 4.191-3.116 10.504 1.075 14.101l36.184 31.058c4.191 3.597 10.504 3.116 14.101-1.075l31.057-36.184c3.597-4.191 3.116-10.504-1.075-14.101z" fill="#f23e60"/><path d="m93.1665 133.843c-4.1861-3.602-4.6593-9.916-1.0568-14.102l60.7323-70.5718c3.602-4.1861 9.916-4.6593 14.102-1.0568l70.572 60.7316c4.186 3.603 4.659 9.917 1.057 14.103l-60.732 70.571c-3.603 4.187-9.917 4.66-14.103 1.057zm75.4705-53.9698c-4.19-3.597-10.504-3.1157-14.101 1.0751l-31.057 36.1837c-3.597 4.191-3.116 10.504 1.075 14.101l36.184 31.058c4.191 3.597 10.504 3.116 14.101-1.075l31.057-36.184c3.597-4.191 3.116-10.504-1.075-14.101z" fill="#e84e57"/><path d="m93.1665 133.843c-4.1861-3.602-4.6593-9.916-1.0568-14.102l60.7323-70.5718c3.602-4.1861 9.916-4.6593 14.102-1.0568l70.572 60.7316c4.186 3.603 4.659 9.917 1.057 14.103l-60.732 70.571c-3.603 4.187-9.917 4.66-14.103 1.057zm75.4705-53.9698c-4.19-3.597-10.504-3.1157-14.101 1.0751l-31.057 36.1837c-3.597 4.191-3.116 10.504 1.075 14.101l36.184 31.058c4.191 3.597 10.504 3.116 14.101-1.075l31.057-36.184c3.597-4.191 3.116-10.504-1.075-14.101z" fill="#fecf07"/></g></svg>

<svg width="315" height="315" viewBox="0 0 315 315" fill="none" xmlns="http://www.w3.org/2000/svg">
<g filter="url(#filter0_d)">
<path d="M93.1665 133.843C88.9804 130.241 88.5072 123.927 92.1097 119.741L152.842 49.1692C156.444 44.9831 162.758 44.5099 166.944 48.1124L237.516 108.844C241.702 112.447 242.175 118.761 238.573 122.947L177.841 193.518C174.238 197.705 167.924 198.178 163.738 194.575L93.1665 133.843ZM168.637 79.8732C164.447 76.2762 158.133 76.7575 154.536 80.9483L123.479 117.132C119.882 121.323 120.363 127.636 124.554 131.233L160.738 162.291C164.929 165.888 171.242 165.407 174.839 161.216L205.896 125.032C209.493 120.841 209.012 114.528 204.821 110.931L168.637 79.8732Z" fill="#F23E60"/>
<path d="M93.1665 133.843C88.9804 130.241 88.5072 123.927 92.1097 119.741L152.842 49.1692C156.444 44.9831 162.758 44.5099 166.944 48.1124L237.516 108.844C241.702 112.447 242.175 118.761 238.573 122.947L177.841 193.518C174.238 197.705 167.924 198.178 163.738 194.575L93.1665 133.843ZM168.637 79.8732C164.447 76.2762 158.133 76.7575 154.536 80.9483L123.479 117.132C119.882 121.323 120.363 127.636 124.554 131.233L160.738 162.291C164.929 165.888 171.242 165.407 174.839 161.216L205.896 125.032C209.493 120.841 209.012 114.528 204.821 110.931L168.637 79.8732Z" fill="#E84E57"/>
<path d="M93.1665 133.843C88.9804 130.241 88.5072 123.927 92.1097 119.741L152.842 49.1692C156.444 44.9831 162.758 44.5099 166.944 48.1124L237.516 108.844C241.702 112.447 242.175 118.761 238.573 122.947L177.841 193.518C174.238 197.705 167.924 198.178 163.738 194.575L93.1665 133.843ZM168.637 79.8732C164.447 76.2762 158.133 76.7575 154.536 80.9483L123.479 117.132C119.882 121.323 120.363 127.636 124.554 131.233L160.738 162.291C164.929 165.888 171.242 165.407 174.839 161.216L205.896 125.032C209.493 120.841 209.012 114.528 204.821 110.931L168.637 79.8732Z" fill="#FECF07"/>
</g>
<defs>
<filter id="filter0_d" x="0.432617" y="0.435394" width="313.817" height="313.817" filterUnits="userSpaceOnUse" color-interpolation-filters="sRGB">
<feFlood flood-opacity="0" result="BackgroundImageFix"/>
<feColorMatrix in="SourceAlpha" type="matrix" values="0 0 0 0 0 0 0 0 0 0 0 0 0 0 0 0 0 0 127 0" result="hardAlpha"/>
<feOffset dx="-8" dy="36"/>
<feGaussianBlur stdDeviation="31"/>
<feColorMatrix type="matrix" values="0 0 0 0 0.976471 0 0 0 0 0.8 0 0 0 0 0.0392157 0 0 0 0.35 0"/>
<feBlend mode="normal" in2="BackgroundImageFix" result="effect1_dropShadow"/>
<feBlend mode="normal" in="SourceGraphic" in2="effect1_dropShadow" result="shape"/>
</filter>
</defs>
</svg>
